X: 28906
T: Na Ceannabháin Bhána
R: slip jig
M: 9/8
K: Gmajor
c|BGG AGE GED|E/F/GD DEG A2A|BGG AGE GED|E/F/GD DEF G2:|
A|:Bdd edd BAG|Bdd edB A2c|Bdd edd BAG|GED DEF G2A|
Bdd edd BAG|Bdd gdB A2c|Bdd edd BAG|GED DEF G2|

